src/assets/metronic/worbby/global/img/icon-music.svg

<?xml version="1.0" encoding="UTF-8"?>
<svg width="45px" height="45px" viewBox="0 0 45 45" version="1.1" xmlns="http://www.w3.org/2000/svg" xmlns:xlink="http://www.w3.org/1999/xlink">
    <!-- Generator: Sketch 41.2 (35397) - http://www.bohemiancoding.com/sketch -->
    <title>icon-music</title>
    <desc>Created with Sketch.</desc>
    <defs>
        <linearGradient x1="0%" y1="49.9979293%" x2="99.9874969%" y2="49.9979293%" id="linearGradient-1">
            <stop stop-color="#FFB247" offset="0%"></stop>
            <stop stop-color="#FFCB33" offset="100%"></stop>
        </linearGradient>
    </defs>
    <g id="Worbby-Worbbior" stroke="none" stroke-width="1" fill="none" fill-rule="evenodd">
        <g id="Categories-List-All" transform="translate(-20.000000, -616.000000)">
            <g id="icon-music" transform="translate(20.000000, 616.000000)">
                <g>
                    <path d="M18.75,37.5 C29.10525,37.5 37.5,29.10525 37.5,18.75 C37.5,8.39475 29.10525,0 18.75,0 C8.39475,0 0,8.39475 0,18.75 C0,29.10525 8.39475,37.5 18.75,37.5" id="Fill-1" fill="url(#linearGradient-1)"></path>
                    <path d="M11.808075,17.461275 C12.931575,17.461275 13.840575,18.375525 13.840575,19.499025 C13.840575,20.621775 12.927075,21.531525 11.808075,21.531525 C10.689075,21.531525 9.775575,20.617275 9.775575,19.499025 C9.775575,18.370275 10.684575,17.461275 11.808075,17.461275 M16.116075,19.493775 L16.116075,5.137525 C16.116075,4.509025 15.606825,3.999775 14.979075,3.999775 C14.350575,3.999775 13.840575,4.509025 13.840575,5.137525 L13.840575,15.723525 C13.231575,15.395025 12.546075,15.190275 11.808075,15.190275 C9.432825,15.190275 7.500075,17.123025 7.500075,19.499025 C7.500075,21.869025 9.432825,23.802525 11.808075,23.802525 C14.183325,23.802525 16.116075,21.869025 16.116075,19.493775 Z" id="Fill-3" fill="#1A1A1A"></path>
                    <path d="M24.3168,38.4258 C25.47855,38.4258 26.4243,39.37155 26.4243,40.5333 C26.4243,41.69505 25.47855,42.6408 24.3168,42.6408 C23.15505,42.6408 22.2093,41.69505 22.2093,40.5333 C22.20405,39.37155 23.15505,38.4258 24.3168,38.4258 L24.3168,38.4258 Z M28.7838,26.2833 L42.64605,26.2833 L42.64605,22.6668 L28.7838,22.6668 L28.7838,26.2833 Z M40.5333,42.6153 C39.37155,42.6153 38.4258,41.6703 38.4258,40.5078 C38.4258,39.3468 39.37155,38.3958 40.5333,38.3958 C41.69505,38.3958 42.6408,39.34155 42.6408,40.5078 C42.64605,41.6703 41.7003,42.6153 40.5333,42.6153 L40.5333,42.6153 Z M24.3168,45.0003 C26.77605,45.0003 28.7838,42.9978 28.7838,40.5333 L28.7838,28.6428 L42.64605,28.6428 L42.64605,36.59505 C42.01755,36.25305 41.3028,36.04155 40.53855,36.04155 C38.07855,36.04155 36.07155,38.0433 36.07155,40.5078 C36.07155,42.9678 38.07405,44.9748 40.53855,44.9748 C43.00305,44.9748 45.0003,42.9678 45.0003,40.5033 L45.0003,27.4653 L45.0003,21.4893 C45.0003,20.8413 44.4723,20.31255 43.8228,20.31255 L27.60105,20.31255 C26.9523,20.31255 26.4243,20.8413 26.4243,21.4893 L26.4243,27.4653 L26.4243,36.62505 C25.7958,36.28305 25.08105,36.07155 24.3168,36.07155 C21.85155,36.07155 19.8498,38.07405 19.8498,40.53855 C19.8498,42.9978 21.85155,45.0003 24.3168,45.0003 L24.3168,45.0003 Z" id="Fill-6" fill="#1A1A1A"></path>
                </g>
            </g>
        </g>
    </g>
</svg>

<svg xmlns="http://www.w3.org/2000/svg" width="45" height="45"><defs><linearGradient id="a" x1="0%" x2="99.9875%" y1="49.9979%" y2="49.9979%"><stop stop-color="#FFB247" offset="0%"/><stop stop-color="#FFCB33" offset="100%"/></linearGradient></defs><g fill="none" fill-rule="evenodd"><path fill="url(#a)" d="M18.75 37.5c10.3553 0 18.75-8.3947 18.75-18.75C37.5 8.3948 29.1053 0 18.75 0 8.3948 0 0 8.3948 0 18.75 0 29.1053 8.3948 37.5 18.75 37.5"/><path fill="#1A1A1A" d="M11.808 17.4613c1.1236 0 2.0326.9142 2.0326 2.0377 0 1.1228-.9135 2.0325-2.0325 2.0325-1.119 0-2.0324-.9142-2.0324-2.0325 0-1.1287.909-2.0377 2.0325-2.0377m4.308 2.0325V5.1375c0-.6285-.5092-1.1377-1.137-1.1377-.6284 0-1.1384.5092-1.1384 1.1377v10.586c-.609-.3285-1.2945-.5332-2.0325-.5332-2.3752 0-4.308 1.9327-4.308 4.3087 0 2.37 1.9328 4.3035 4.308 4.3035 2.3753 0 4.308-1.9335 4.308-4.3087zM24.3168 38.4258c1.1617 0 2.1075.9457 2.1075 2.1075s-.9458 2.1075-2.1075 2.1075c-1.1618 0-2.1075-.9457-2.1075-2.1075-.0053-1.1617.9458-2.1075 2.1075-2.1075zm4.467-12.1425H42.646v-3.6165H28.784v3.6165zm11.7495 16.332c-1.1617 0-2.1075-.945-2.1075-2.1075 0-1.161.9457-2.112 2.1075-2.112s2.1075.9457 2.1075 2.112c.0053 1.1625-.9405 2.1075-2.1075 2.1075zm-16.2165 2.385c2.4593 0 4.467-2.0025 4.467-4.467V28.6428H42.646v7.9522c-.6285-.342-1.3432-.5534-2.1075-.5534-2.46 0-4.467 2.0017-4.467 4.4662 0 2.46 2.0025 4.467 4.467 4.467 2.4646 0 4.4618-2.007 4.4618-4.4715v-19.014c0-.648-.528-1.1767-1.1775-1.1767H27.601c-.6487 0-1.1767.5287-1.1767 1.1767V36.625c-.6285-.342-1.3432-.5534-2.1075-.5534-2.4653 0-4.467 2.0025-4.467 4.467 0 2.4592 2.0018 4.4617 4.467 4.4617z"/></g></svg>
